X:28
T:Untitled,fragment. HA.029
M:C
L:1/8
Q:1/2=100
S:Henry Atkinson’s original MS,Hartburn,N’umberland,1694.
O:England
A:Hartburn,Northumberland
N:Not enough left to reconstruct.
H:1/8
Z:vmp.Chris Partington.Jan.2004
K:C
“_No Key Sig”B2G2G2g2|(gf)(ed) B4|\
(fg)(fd) (Bd)(fc)|(AB)(cA) f2 f2|
G2b2a2B2|(fg)(af) “^cr”g3g|\
(fe)(fd) ef g2|(c2Bc) d4||
“_sic”b(ag) (ad)|g2a2b4|(ba)(gf) (ed)(cB)|
(de)f2 A3 A|”_sic”(Ac)(dB) (de) (fd)|”_music runs out”zzzz||

